public/library/optimism-icon-dark.svg

<svg width="72" height="72" viewBox="0 0 72 72" fill="none" xmlns="http://www.w3.org/2000/svg">
<g clip-path="url(#clip0_254_7254)">
<circle cx="36" cy="36" r="36" fill="#E72D2B"/>
<path d="M35.1677 31.2597C35.1677 32.4529 34.9688 34.0438 34.5711 36.0324C34.1137 38.379 33.6762 40.139 33.2586 41.3123C32.8609 42.4856 32.2444 43.5098 31.4091 44.3848C29.8978 46.0154 27.8992 46.8308 25.4134 46.8308C23.4247 46.8308 21.8537 46.2541 20.7003 45.1007C19.5668 43.9473 19 42.5154 19 40.8052C19 39.612 19.1989 38.0211 19.5966 36.0324C20.054 33.6858 20.4815 31.9259 20.8793 30.7526C21.2969 29.5793 21.9233 28.5551 22.7585 27.6801C24.2699 26.0494 26.2685 25.2341 28.7543 25.2341C30.743 25.2341 32.304 25.8108 33.4376 26.9642C34.591 28.1176 35.1677 29.5495 35.1677 31.2597ZM31.2302 31.5878C31.2302 30.673 30.9617 29.9671 30.4248 29.4699C29.9077 28.9529 29.2614 28.6943 28.4858 28.6943C27.3722 28.6943 26.4276 29.1219 25.652 29.977C25.2344 30.4344 24.8665 31.1006 24.5483 31.9756C24.25 32.8307 23.912 34.183 23.5341 36.0324C23.1364 38.0211 22.9375 39.5026 22.9375 40.4771C22.9375 41.3918 23.196 42.1078 23.7131 42.6248C24.25 43.122 24.9063 43.3705 25.6818 43.3705C26.7955 43.3705 27.7401 42.943 28.5157 42.0879C28.9333 41.6305 29.2912 40.9742 29.5895 40.1191C29.9077 39.2441 30.2557 37.8819 30.6336 36.0324C31.0313 34.0836 31.2302 32.602 31.2302 31.5878Z" fill="white"/>
<path d="M54 31.0211C54 33.0495 53.294 34.7895 51.8821 36.2413C50.49 37.693 48.5809 38.4188 46.1548 38.4188H42.0681L40.4275 46.6518H36.49L40.7556 25.4131H48.3025C50.0724 25.4131 51.4645 25.9301 52.4787 26.9642C53.4929 27.9784 54 29.3307 54 31.0211ZM50.0327 31.3492C50.0327 29.7185 49.2372 28.9032 47.6463 28.9032H44.0071L42.784 34.9287H46.3039C47.4971 34.9287 48.4119 34.5608 49.0483 33.825C49.7045 33.0892 50.0327 32.264 50.0327 31.3492Z" fill="white"/>
</g>
<defs>
<clipPath id="clip0_254_7254">
<rect width="72" height="72" fill="white"/>
</clipPath>
</defs>
</svg>

<svg xmlns="http://www.w3.org/2000/svg" width="72" height="72" fill="none" viewBox="0 0 72 72"><g clip-path="url(#a)"><circle cx="36" cy="36" r="36" fill="#e72d2b"/><path fill="#fff" d="M35.168 31.26q0 1.79-.597 4.772-.686 3.52-1.312 5.28a8.2 8.2 0 0 1-1.85 3.073q-2.267 2.445-5.996 2.446-2.983 0-4.713-1.73Q19 43.37 19 40.805q0-1.79.597-4.773.685-3.519 1.282-5.28a8.5 8.5 0 0 1 1.88-3.072q2.266-2.445 5.995-2.446 2.983 0 4.684 1.73 1.73 1.73 1.73 4.296m-3.938.328q0-1.372-.805-2.118-.776-.776-1.94-.776-1.67 0-2.833 1.283-.627.686-1.104 1.999-.447 1.282-1.014 4.056-.596 2.984-.596 4.445 0 1.372.775 2.148.805.745 1.969.745 1.67 0 2.834-1.282.625-.687 1.074-1.969.477-1.312 1.044-4.087.596-2.923.596-4.444M54 31.021q0 3.043-2.118 5.22-2.088 2.178-5.727 2.178h-4.087l-1.64 8.233H36.49l4.266-21.239h7.547q2.655 0 4.176 1.551Q54 28.485 54 31.021m-3.967.328q0-2.445-2.387-2.446h-3.639l-1.223 6.026h3.52q1.79 0 2.744-1.104.985-1.104.985-2.476"/></g><defs><clipPath id="a"><path fill="#fff" d="M0 0h72v72H0z"/></clipPath></defs></svg>
